X:47
T:Hour Glass, The
M:6/8
L:1/8
N:The c note in the 3rd measure, 2nd part, may be sharped.
B:Thompson's Compleat Collection of 200 Favourite Country Dances, vol. 2 (London, 1765)
Z:Transcribed and edited by Flynn Titford-Mock, 2007
Z:abc's:AK/Fiddler's Companion
K:G
G2A B2c | dBG dBG | F2G A2B | cAF cAF | G2A B2c | dBG dBG | AcB AGF | G3g3 :|
|: d2e f2g | afd afd | c2d e2f | ge^c | ge^c | d2e f2g | afd afd | egf ed^c | d3 d3 :|

